src/assets/github.svg

<svg fill="#000000" xmlns="http://www.w3.org/2000/svg"  viewBox="0 0 16 16" width="128px" height="128px"><path d="M 7.5 1 C 3.910156 1 1 3.90625 1 7.488281 C 1 10.355469 2.863281 12.789063 5.445313 13.648438 C 5.769531 13.707031 6 13.375 6 13.125 C 6 12.972656 6.003906 12.789063 6 12.25 C 4.191406 12.640625 3.625 11.375 3.625 11.375 C 3.328125 10.625 2.96875 10.410156 2.96875 10.410156 C 2.378906 10.007813 3.011719 10.019531 3.011719 10.019531 C 3.664063 10.0625 4 10.625 4 10.625 C 4.5 11.5 5.628906 11.414063 6 11.25 C 6 10.851563 6.042969 10.5625 6.152344 10.378906 C 4.109375 10.019531 2.996094 8.839844 3 7.207031 C 3.003906 6.242188 3.335938 5.492188 3.875 4.9375 C 3.640625 4.640625 3.480469 3.625 3.960938 3 C 5.167969 3 5.886719 3.871094 5.886719 3.871094 C 5.886719 3.871094 6.453125 3.625 7.496094 3.625 C 8.542969 3.625 9.105469 3.859375 9.105469 3.859375 C 9.105469 3.859375 9.828125 3 11.035156 3 C 11.515625 3.625 11.355469 4.640625 11.167969 4.917969 C 11.683594 5.460938 12 6.210938 12 7.207031 C 12 8.839844 10.890625 10.019531 8.851563 10.375 C 8.980469 10.570313 9 10.84375 9 11.25 C 9 12.117188 9 12.910156 9 13.125 C 9 13.375 9.226563 13.710938 9.558594 13.648438 C 12.140625 12.785156 14 10.355469 14 7.488281 C 14 3.90625 11.089844 1 7.5 1 Z"/></svg>

<svg xmlns="http://www.w3.org/2000/svg" width="128" height="128" viewBox="0 0 16 16"><path d="M7.5 1C3.91 1 1 3.906 1 7.488a6.497 6.497 0 0 0 4.445 6.16c.325.059.555-.273.555-.523 0-.152.004-.336 0-.875-1.809.39-2.375-.875-2.375-.875-.297-.75-.656-.965-.656-.965-.59-.402.043-.39.043-.39.652.043.988.605.988.605.5.875 1.629.79 2 .625 0-.398.043-.688.152-.871C4.11 10.019 2.996 8.839 3 7.207c.004-.965.336-1.715.875-2.27-.234-.296-.395-1.312.086-1.937 1.207 0 1.926.871 1.926.871s.566-.246 1.61-.246c1.046 0 1.608.234 1.608.234S9.828 3 11.035 3c.48.625.32 1.64.133 1.918.516.543.832 1.293.832 2.289 0 1.633-1.11 2.813-3.148 3.168.128.195.148.469.148.875v1.875c0 .25.227.586.559.523A6.497 6.497 0 0 0 14 7.488C14 3.906 11.09 1 7.5 1Z"/></svg>
